X: 1584
T: Angus Smiley
R: reel
M: 4/4
K: Bminor
cBBA B2 FB|ABcB AFFd|cBBA Bcde|faec B2 BA|
cBBA B2 FB|ABcB AFFd|cBBA Bcde|faec B2 Bf||
affa ecce|dBcA BAFb|affa ecce|faec B2 Bf|
affa ecce|dBcA BAFb|abfa efce|cBBA B2 AB||

